!!!OTL: Wenn ich heim soll gehn (293), S. 608
!!!id: T0483
**kern
*clefG2
*k[f#]
*G:
{4d
=1
8g
8g
8g
8g
=2
4g
8f#
8e
=3
4a
8d
8d
=4
4d}
=5
{4d
=6
4a
4a
=7
4a
8g
8a
=8
4b
8g
8g
=9
4g}
=10
{8b
8b
=11
4b
8g
8g
=12
4g}
=13
{4b
=14
8g
8g
8g
8g
=15
4f#
8e
8f#
=16
4g}
==
*-
!!!minrhy: 8
!!!meters: 2/4 ]  ZZ[4
!!!cut: Wenn ich heim soll gehn (293), S. 608
!!!reg: Luxemburg
!!!trd: Singendes Volk, Esch-Alzette 1937 posth.
!!!rhy1: X_  XXXX  X_XX  X_XX  X_
!!!rhy2: X_  X_X_  X_XX  X_XX  X_
!!!key: T0483  08  G 2/4 ]  ZZ[4
!!!mod: SECHSTONSKALA DUR ?]  AMBITUS[6
!!!kad: -5111
!!!akz: 112-5_2231_31_1-71_
!!!fot: 'a__b__c__d__
!!!for: 'a__b__c__aw_
!!!fok: '^__^a_\__Vd_
!! PHRAS[AUFTAKTIG]
!!!fkt: ???
!!!bem: Junglinster, hhh Johann W&uuml;rth, 25.12.1932
!! THILL, Mathias
!! PR[61] 2K[6] 2G[6] 3K[0] 3G[3] 4A[0] 4Ü[0] 5A[0] 6K[0] 6G[3]
!! 7K[0] 7G[0] 8A[0] MEHR[0] SI[17] ABS[36] SR[11] SP[6]
!! ST[0] 2k[6] 2g[11] 3k[0] 3g[3] 4d[3] 4ü[0] 5d[0] 6k[0] 6g[0]
!! 7k[0] 7g[0] 8d[0] mehr[0] si[22] dm[-5] sr[17] sp[6]
!! 1F[86] 2F[14] 3F[0] 4F[0] LF[0] 2P[0] 3P[0] 4P[0] TRI[0] DF[2] AB[37]
!! TF[0] U3K[0] U3[0] U4[0] U4Ü[0] U5[5] U6K[0] U6[0] U7K[0] U7[3]
!! N1[41] N2K[0] N2[24] N3K[0] N3[24] N4[3] N4Ü[0] N5[0] N6K[0] N6[0]
!!!n7k: 0] N7[0] O1[0] O2K[0] O2[0] O3K[0] O3[0] HÖ[0
!!!RNB: symbol: &uuml;  = u umlaut (UTF-8: Ã¼)
